X:1
T:Title
%%score ( 1 2 ) { 3 | 4 }
L:1/8
Q:1/4=130
M:3/4
K:C
V:1 treble nm="Grand Piano, Soprano"
V:2 treble 
V:3 bass nm="Choir Pad, Moreno, 11.8.11.8 D"
V:4 bass 
V:1
 [EG][EG] [FG]2 [FA]2 | [FB]2 [Ec]2 [CE]2 | [CA]2 [CG]2 C2 | [B,F]2 [CE]4 | [CE]2 [B,D]2 [CE]2 | %5
w: By~Anonymous,~1898 * * *|||||
 [DF]2 [FA]2 [EG]2 | z2 G4- | G2 z2 z2 | GG [GA]2 [GB]2 | [Gc]2 [Ad]2 A2 | [Dc]2 [DB]2 [CE]2 | %11
w: ||||||
 [CA]2 [B,G]4 | [^CG]2 [D^F]2 [CG]2 | [CA]2 [B,B]2 [Ec]2 | z2 A4- | A2 z2 z2 | [DG]2 [DG]2 [DA]2 | %17
w: ||||||
 [DB]2 [Cc]2 [DB]2 | [Cc]2 [CA]2 [DB]2 | [G^c]2 [Fd]4 | [F_e]2 [E=e]2 [EB]2 | [Ed]2 [Ec]2 [CE]2 | %22
w: |||||
 [EB]2 [^FA]4- | [FA]2 G4 | [DG][DG] [DG]2 [DA]2 | [DB]2 [Cc]2 [CE]2 | [CA]2 [CG]2 C2 | %27
w: |||||
 [B,F]2 [CE]4 | [DG][DG] [Gc]2 [Gd]2 | [Ge]2 [Ff]2 [FA]2 | [Fe]2 d2- [Gd-]2 | [Fd]2 [Ec]4- | %32
w: |||||
 [Ec]4 z2 |] %33
w: |
V:2
 x6 | x6 | x6 | x6 | x6 | x6 | [_E^F]2 =E4- | E2- [CE]4 | x6 | x6 | x6 | x6 | x6 | x6 | %14
 [C^F]2 C2 D2 | C2 [B,G]4 | x6 | x6 | x6 | x6 | x6 | x6 | x6 | x6 | x6 | x6 | x6 | x6 | x6 | x6 | %30
 z2 F2 z2 | x6 | x6 |] %33
V:3
 CC B,2 A,2 | G,2 G,2 G,2 | F,2 G,2 G,2 | G,2 G,4 | G,2 G,2 G,2 | G,2 G,2 G,2 | A,2[K:treble] C4- | %7
 C2 G,4 | EE E2 E2 | E2 D2 D2 | A,2 G,2 G,2 | ^F,2 G,4 | G,2 A,2 A,2 | A,2 G,2 G,2 | D,2 ^F,4- | %15
 F,2 G,4 | B,2 B,2 A,2 | G,2 G,2 G,2 | G,2 A,2 A,2 | A,2 A,4 | A,2 ^G,2 G,2 | B,2 A,2 A,2 | %22
 C2 C4- | C2 B,4 | B,[K:bass]B, B,2 A,2 | G,2 G,2 G,2 | F,2 E,2 E,2 | G,2 G,4 | B,B, C2 B,2 | %29
 A,2 A,2 A,2 | A,2 B,4- | B,2[K:treble] C4- | C4 z2 |] %33
V:4
 C,C, C,2 C,2 | C,2 C,2 C,2 | z2 E,2 E,2 | D,2 C,4 | C,2 G,,2 G,,2 | G,,2 C,2 C,2 | C,2 C,4- | %7
 C,6 | CC C2 B,2 | A,2 ^F,2 F,2 | ^F,2 z2 C,2 | D,2 E,4 | E,2 D,2 E,2 | ^F,2 z2 C,2 | z2 D,4- | %15
 D,2 G,,4 | G,2 F,2 F,2 | F,2 E,2 F,2 | E,2 F,2 F,2 | E,2 D,4 | C,2 B,,2 B,,2 | ^G,,2 A,,2 A,,2 | %22
 A,,2 D,4- | D,2 G,4 | G,G, F,2 F,2 | F,2 E,2 C,2 | F,,2 G,,2 G,,2 | G,,2 C,4 | F,F, E,2 D,2 | %29
 ^C,2 D,2 D,2 | D,2 G,,4- | G,,2 C,4- | C,4 z2 |] %33

